Origami/22x22/apps/green-recorder.svg

<svg width="22" height="22" version="1" xmlns="http://www.w3.org/2000/svg">
 <rect transform="matrix(0,-1,-1,0,0,0)" x="-20" y="-17" width="16" height="12" rx="1" ry="1" style="fill:#8e8e8e"/>
 <rect transform="matrix(0,-1,-1,0,0,0)" x="-18" y="-21" width="16" height="20" rx="1" ry="1" style="fill:#4f4f4f"/>
 <rect transform="matrix(0,-1,-1,0,0,0)" x="-16" y="-19" width="12" height="16" rx="0" ry="0" style="fill:#37b368"/>
 <path d="m2 2c-0.554 0-1 0.446-1 1v0.5c0-0.554 0.446-1 1-1h18c0.554 0 1 0.446 1 1v-0.5c0-0.554-0.446-1-1-1z" style="fill:#ffffff;opacity:.1"/>
 <path d="m5 19v0.5c0 0.554 0.446 1 1 1h10c0.554 0 1-0.446 1-1v-0.5c0 0.554-0.446 1-1 1h-10c-0.554 0-1-0.446-1-1z" style="opacity:.2"/>
 <path d="m1 17v0.5c0 0.554 0.446 1 1 1h18c0.554 0 1-0.446 1-1v-0.5c0 0.554-0.446 1-1 1h-18c-0.554 0-1-0.446-1-1z" style="opacity:.2"/>
 <g transform="translate(0,-1.50075)" style="opacity:.2">
  <path d="m6.5318 9.0005h5.9347c0.533 0 0.533 0.5714 0.533 0.5714v4.85685c0 0.572-0.533 0.572-0.533 0.572h-5.9331s-0.5334 0-0.5334-0.571v-4.85735s0-0.5714 0.5334-0.5714z"/>
  <path d="m15.9995 9.5005v5l-3-2.5z"/>
 </g>
 <g transform="translate(0,-2.0005)" style="fill:#ffffff">
  <path d="m6.5318 9.0005h5.9347c0.533 0 0.533 0.5714 0.533 0.5714v4.85685c0 0.572-0.533 0.572-0.533 0.572h-5.9331s-0.5334 0-0.5334-0.571v-4.85735s0-0.5714 0.5334-0.5714z"/>
  <path d="m15.9995 9.5005v5l-3-2.5z"/>
 </g>
</svg>

<svg xmlns="http://www.w3.org/2000/svg" width="22" height="22" version="1">
 <rect style="fill:#8e8e8e" width="16" height="12" x="-20" y="-17" rx="1" ry="1" transform="matrix(0,-1,-1,0,0,0)"/>
 <rect style="fill:#4f4f4f" width="16" height="20" x="-18" y="-21" rx="1" ry="1" transform="matrix(0,-1,-1,0,0,0)"/>
 <rect style="fill:#37b368" width="12" height="16" x="-16" y="-19" rx="0" ry="0" transform="matrix(0,-1,-1,0,0,0)"/>
 <path style="opacity:0.1;fill:#ffffff" d="M 2,2 C 1.446,2 1,2.446 1,3 v 0.5 c 0,-0.554 0.446,-1 1,-1 h 18 c 0.554,0 1,0.446 1,1 V 3 C 21,2.446 20.554,2 20,2 Z"/>
 <path style="opacity:0.2" d="m 5,19 v 0.5 c 0,0.554 0.446,1 1,1 h 10 c 0.554,0 1,-0.446 1,-1 V 19 c 0,0.554 -0.446,1 -1,1 H 6 C 5.446,20 5,19.554 5,19 Z"/>
 <path style="opacity:0.2" d="m 1,17 v 0.5 c 0,0.554 0.446,1 1,1 h 18 c 0.554,0 1,-0.446 1,-1 V 17 c 0,0.554 -0.446,1 -1,1 H 2 C 1.446,18 1,17.554 1,17 Z"/>
 <g style="opacity:0.2" transform="translate(0,-1.50075)">
  <path d="m 6.5318,9.0005 h 5.9347 c 0.533,0 0.533,0.5714 0.533,0.5714 v 4.85685 c 0,0.572 -0.533,0.572 -0.533,0.572 H 6.5334 c 0,0 -0.5334,0 -0.5334,-0.571 V 9.5724 c 0,0 0,-0.5714 0.5334,-0.5714 z"/>
  <path d="m 15.9995,9.5005 v 5 l -3,-2.5 z"/>
 </g>
 <g style="fill:#ffffff" transform="translate(0,-2.0005)">
  <path d="m 6.5318,9.0005 h 5.9347 c 0.533,0 0.533,0.5714 0.533,0.5714 v 4.85685 c 0,0.572 -0.533,0.572 -0.533,0.572 H 6.5334 c 0,0 -0.5334,0 -0.5334,-0.571 V 9.5724 c 0,0 0,-0.5714 0.5334,-0.5714 z"/>
  <path d="m 15.9995,9.5005 v 5 l -3,-2.5 z"/>
 </g>
</svg>
